src/lib/packages/icons/src/assets/filled/user-times-bottom.svg

<svg width="24" height="24" viewBox="0 0 24 24" fill="none" xmlns="http://www.w3.org/2000/svg">
<path d="M14 19C14 19.736 14.1789 20.434 14.4969 21.052C14.6019 21.257 14.471 21.5 14.241 21.5H11H7C4.71 21.5 3.5 20.3 3.5 18.02C3.5 15.47 4.94 12.5 9 12.5H11H13C15.002 12.5 16.369 13.224 17.235 14.26C17.37 14.422 17.277 14.6611 17.077 14.7271C15.284 15.3181 14 17.004 14 19ZM11.009 10.5C13.215 10.5 15.009 8.706 15.009 6.5C15.009 4.294 13.215 2.5 11.009 2.5C8.80303 2.5 7.00903 4.294 7.00903 6.5C7.00903 8.706 8.80303 10.5 11.009 10.5ZM19.561 19L20.531 18.03C20.824 17.737 20.824 17.262 20.531 16.969C20.238 16.676 19.763 16.676 19.47 16.969L18.5 17.939L17.53 16.969C17.237 16.676 16.762 16.676 16.469 16.969C16.176 17.262 16.176 17.737 16.469 18.03L17.439 19L16.469 19.97C16.176 20.263 16.176 20.738 16.469 21.031C16.615 21.177 16.807 21.251 16.999 21.251C17.191 21.251 17.3831 21.178 17.5291 21.031L18.499 20.061L19.469 21.031C19.615 21.177 19.807 21.251 19.999 21.251C20.191 21.251 20.3831 21.178 20.5291 21.031C20.8221 20.738 20.8221 20.263 20.5291 19.97L19.561 19Z" fill="currentColor"/>
</svg>

<svg xmlns="http://www.w3.org/2000/svg" width="24" height="24" fill="none"><path fill="currentColor" d="M14 19c0 .736.179 1.434.497 2.052.105.205-.026.448-.256.448H7c-2.29 0-3.5-1.2-3.5-3.48 0-2.55 1.44-5.52 5.5-5.52h4c2.002 0 3.369.724 4.235 1.76.135.162.042.401-.158.467A4.487 4.487 0 0 0 14 19Zm-2.991-8.5c2.206 0 4-1.794 4-4s-1.794-4-4-4-4 1.794-4 4 1.794 4 4 4Zm8.552 8.5.97-.97a.75.75 0 1 0-1.061-1.061l-.97.97-.97-.97a.75.75 0 1 0-1.061 1.061l.97.97-.97.97a.75.75 0 0 0 1.06 1.061l.97-.97.97.97a.748.748 0 0 0 1.06 0 .75.75 0 0 0 0-1.061l-.968-.97Z"/></svg>
